X:4
T:Ballydesmond No. 3
Z: id:dc-polka-3
M:2/4
L:1/8
K:D Mixolydian
A>B AG|EF GE|A>B AG|Ad d/e/d/c/|!
A>B AG|EF G2|AB cE|ED D2:|!
ed d2|eB c2|ed ^cd|ea a/b/a/g/|!
[1 ed d2|eB c/d/c/B/|AB cd|ef g2:|!
[2 e/f/g de|^ce d>=c|AB cE|ED D2|]!